src/assets/images/icons/communication.svg

<svg xmlns="http://www.w3.org/2000/svg" width="29" height="22" viewBox="0 0 29 22" fill="none"><path d="M28.7306 18.8572C28.8256 18.7399 28.8835 18.597 28.8971 18.4467C28.9106 18.2964 28.8791 18.1455 28.8066 18.0131L26.1225 13.1849C26.6181 11.7054 26.7547 10.1293 26.5211 8.58665C26.2875 7.044 25.6904 5.57901 24.779 4.31261C23.8677 3.04621 22.6682 2.0147 21.2796 1.30322C19.891 0.591745 18.3532 0.220697 16.7929 0.220704C14.7071 0.219906 12.6752 0.883012 10.9914 2.114H10.8925C9.17791 2.11352 7.49414 2.56993 6.0145 3.43626C4.53486 4.3026 3.31279 5.54756 2.47406 7.04302C1.63533 8.53848 1.21024 10.2304 1.24253 11.9447C1.27483 13.659 1.76335 15.3338 2.65781 16.7966L0.9622 20.7504C0.902364 20.8893 0.8853 21.0429 0.913189 21.1915C0.941077 21.3402 1.01265 21.4771 1.11876 21.5848C1.22487 21.6926 1.3607 21.7662 1.50889 21.7964C1.65708 21.8266 1.81089 21.8118 1.95067 21.7541L5.98058 20.0965C7.5234 21.0028 9.28813 21.4615 11.077 21.4212C12.8658 21.3809 14.6081 20.8433 16.1086 19.8684C16.334 19.8798 16.5599 19.8798 16.7853 19.8684C19.0734 19.8612 21.2871 19.0543 23.0431 17.5873L27.917 19.0472C28.0564 19.0984 28.2077 19.1077 28.3522 19.074C28.4968 19.0402 28.6283 18.9648 28.7306 18.8572V18.8572ZM13.0063 12.3865H20.6099C20.8116 12.3865 21.005 12.4666 21.1476 12.6092C21.2902 12.7518 21.3703 12.9452 21.3703 13.1468C21.3703 13.3485 21.2902 13.5419 21.1476 13.6845C21.005 13.8271 20.8116 13.9072 20.6099 13.9072H13.0063C12.8047 13.9072 12.6113 13.8271 12.4687 13.6845C12.3261 13.5419 12.246 13.3485 12.246 13.1468C12.246 12.9452 12.3261 12.7518 12.4687 12.6092C12.6113 12.4666 12.8047 12.3865 13.0063 12.3865ZM12.246 10.1054C12.246 9.90374 12.3261 9.71034 12.4687 9.56774C12.6113 9.42514 12.8047 9.34504 13.0063 9.34504H20.6099C20.8116 9.34504 21.005 9.42514 21.1476 9.56774C21.2902 9.71034 21.3703 9.90374 21.3703 10.1054C21.3703 10.3071 21.2902 10.5005 21.1476 10.6431C21.005 10.7856 20.8116 10.8658 20.6099 10.8658H13.0063C12.8047 10.8658 12.6113 10.7856 12.4687 10.6431C12.3261 10.5005 12.246 10.3071 12.246 10.1054V10.1054ZM20.6099 7.82431H13.0063C12.8047 7.82431 12.6113 7.7442 12.4687 7.60161C12.3261 7.45901 12.246 7.26561 12.246 7.06395C12.246 6.86229 12.3261 6.66889 12.4687 6.5263C12.6113 6.3837 12.8047 6.30359 13.0063 6.30359H20.6099C20.8116 6.30359 21.005 6.3837 21.1476 6.5263C21.2902 6.66889 21.3703 6.86229 21.3703 7.06395C21.3703 7.26561 21.2902 7.45901 21.1476 7.60161C21.005 7.7442 20.8116 7.82431 20.6099 7.82431ZM6.45961 18.5758C6.35712 18.509 6.24001 18.4678 6.11823 18.4559C5.99644 18.444 5.87358 18.4617 5.76008 18.5074L3.09881 19.6099L4.21655 17.0247C4.27319 16.9032 4.29669 16.7688 4.28467 16.6353C4.27266 16.5018 4.22554 16.3738 4.14811 16.2643C3.41476 15.1626 2.96151 13.8985 2.82775 12.5818C2.69398 11.2651 2.88375 9.93571 3.38057 8.70904C3.87738 7.48236 4.66621 6.39556 5.67852 5.54304C6.69083 4.69053 7.89599 4.09809 9.18931 3.81721V3.81721C8.17624 5.04994 7.47818 6.51055 7.15529 8.07313C6.83241 9.63571 6.89439 11.2534 7.33589 12.7867C7.7774 14.32 8.58518 15.7229 9.6896 16.8745C10.794 18.0261 12.1619 18.8918 13.6754 19.397C12.492 19.8307 11.2239 19.9829 9.97152 19.8417C8.7191 19.7005 7.51674 19.2697 6.45961 18.5834V18.5758Z" fill="#1F3D56"></path></svg>

<svg xmlns="http://www.w3.org/2000/svg" width="29" height="22" fill="none"><path d="M28.73 18.857a.761.761 0 00.077-.844l-2.684-4.828A9.839 9.839 0 0010.99 2.114h-.098a9.649 9.649 0 00-8.235 14.683L.962 20.75a.76.76 0 00.989 1.004l4.03-1.658a9.634 9.634 0 0010.128-.228 6.7 6.7 0 00.676 0 9.809 9.809 0 006.258-2.28l4.874 1.46a.761.761 0 00.814-.19zm-15.724-6.47h7.604a.76.76 0 110 1.52h-7.604a.76.76 0 010-1.52zm-.76-2.282a.76.76 0 01.76-.76h7.604a.76.76 0 110 1.52h-7.604a.76.76 0 01-.76-.76zm8.364-2.28h-7.604a.76.76 0 010-1.521h7.604a.76.76 0 110 1.52zM6.46 18.574a.76.76 0 00-.7-.068L3.1 19.61l1.118-2.585a.76.76 0 00-.069-.76A8.128 8.128 0 019.19 3.816a9.84 9.84 0 004.486 15.58 8.12 8.12 0 01-7.215-.814v-.007z" fill="#1F3D56"/></svg>
